X:154
T:The lane to the glen
T:The road to the glen
R:Reel
C:Ed Reavy
B:The Collected Compositions of Ed Reavy
S:Henrik Norbeck
Z:Transcription:Henrik Norbeck(?), chords:Mike Long
M:C|
L:1/8
K:C
DE|\
"Dm"FdcB ADFD|"G"G2dG BGdG|"F"F2cF Acde|"F"fedc "G"ABcA|"Dm"~d3e f2ag|
"F"fedc "G"AFDE|[1 "Dm"FEFG "F"AGFG|"G"Addc "Dm"d2:|[2 "Dm"FEFG "F"A2DE|"G"FDEC "Dm"D2|]
de|\
"Dm"f2ag fedf|"C"ec~c2 Gceg|"Dm"f2ag fede|"F"fdec "G"Adde|\
"Dm"f2fg gffe|
"C"fedc AFDE|"Dm"FEFG "F"AGFG|"G"Addc "Dm"d2de||\
"Dm"f2ag fedf|"C"ec~c2 Gceg|
"Dm"f2ag fede|"F"fdec "G"Addc|\
"Dm"d2~d2 Adfd|"C"gc~c2 acgc|"Dm"agfe "F"dcAG|"G"FDEC "Dm"D2|]
